templates/main/source/images/precent.svg

<?xml version="1.0" encoding="utf-8"?>
<svg width="41px" height="41px" viewbox="0 0 41 41" version="1.1" xmlns:xlink="http://www.w3.org/1999/xlink" xmlns="http://www.w3.org/2000/svg">
  <g id="hit" transform="translate(0.5 0.5)">
    <path d="M20 40C31.0457 40 40 31.0457 40 20C40 8.9543 31.0457 0 20 0C8.9543 0 0 8.9543 0 20C0 31.0457 8.9543 40 20 40Z" id="Oval" fill="#FFFFFF" fill-rule="evenodd" stroke="none" />
    <path d="M4.10493 8.69565C2.89045 8.69565 1.90268 8.27869 1.14161 7.44474C0.380532 6.6108 0 5.5785 0 4.34783C0 3.11715 0.388629 2.08486 1.1659 1.25091C1.94317 0.416966 2.93903 0 4.15351 0C5.36799 0 6.35576 0.416966 7.11683 1.25091C7.87791 2.08486 8.25844 3.11715 8.25844 4.34783C8.25844 5.56231 7.86981 6.59055 7.09254 7.4326C6.31527 8.27464 5.31941 8.69565 4.10493 8.69565ZM1.70027 17.197L14.1122 0.194316L17.0027 0.194316L4.59072 17.197L1.70027 17.197ZM14.5494 17.3913C13.3349 17.3913 12.3472 16.9743 11.5861 16.1404C10.825 15.3064 10.4445 14.2742 10.4445 13.0435C10.4445 11.8128 10.8331 10.7805 11.6104 9.94656C12.3877 9.11262 13.3835 8.69565 14.598 8.69565C15.8125 8.69565 16.8003 9.11262 17.5613 9.94656C18.3224 10.7805 18.7029 11.8128 18.7029 13.0435C18.7029 14.258 18.3143 15.2862 17.537 16.1282C16.7598 16.9703 15.7639 17.3913 14.5494 17.3913ZM4.15351 6.4853C4.6393 6.4853 5.01983 6.27885 5.29512 5.86592C5.5704 5.453 5.70804 4.94697 5.70804 4.34783C5.70804 3.76487 5.55826 3.2629 5.25868 2.84188C4.95911 2.42085 4.57453 2.21035 4.10493 2.21035C3.61914 2.21035 3.23861 2.41276 2.96332 2.81759C2.68804 3.22241 2.5504 3.73249 2.5504 4.34783C2.5504 4.93078 2.70018 5.43276 2.99976 5.85378C3.29933 6.2748 3.68391 6.4853 4.15351 6.4853ZM14.598 15.181C15.0838 15.181 15.4643 14.9745 15.7396 14.5616C16.0149 14.1486 16.1525 13.6426 16.1525 13.0435C16.1525 12.4605 16.0028 11.9585 15.7032 11.5375C15.4036 11.1165 15.019 10.906 14.5494 10.906C14.0636 10.906 13.6831 11.1084 13.4078 11.5132C13.1325 11.9181 12.9949 12.4281 12.9949 13.0435C12.9949 13.6264 13.1447 14.1284 13.4443 14.5494C13.7438 14.9704 14.1284 15.181 14.598 15.181Z" transform="translate(10.434783 11.304348)" id="%" fill="#8C0014" fill-rule="evenodd" stroke="none" />
  </g>
</svg>

<svg width="41" height="41" xmlns:xlink="http://www.w3.org/1999/xlink" xmlns="http://www.w3.org/2000/svg"><g id="hit" transform="translate(.5 .5)" fill-rule="evenodd" stroke="none"><path d="M20 40c11.046 0 20-8.954 20-20S31.046 0 20 0 0 8.954 0 20s8.954 20 20 20z" id="Oval" fill="#FFF"/><path d="M4.105 8.696c-1.215 0-2.202-.417-2.963-1.251C.38 6.61 0 5.578 0 4.348S.389 2.085 1.166 1.25C1.943.417 2.939 0 4.154 0c1.214 0 2.202.417 2.963 1.25.76.835 1.141 1.867 1.141 3.098 0 1.214-.388 2.243-1.165 3.085-.778.842-1.774 1.263-2.988 1.263zM1.7 17.197L14.112.194h2.89L4.592 17.197H1.7zm12.85.194c-1.215 0-2.203-.417-2.964-1.25-.761-.835-1.142-1.867-1.142-3.097 0-1.231.39-2.264 1.166-3.097.778-.834 1.774-1.251 2.988-1.251s2.202.417 2.963 1.25c.761.835 1.142 1.867 1.142 3.098 0 1.214-.389 2.242-1.166 3.084-.777.842-1.773 1.263-2.988 1.263zM4.153 6.485c.485 0 .866-.206 1.141-.62.275-.412.413-.918.413-1.517 0-.583-.15-1.085-.45-1.506-.299-.421-.683-.632-1.153-.632-.486 0-.866.203-1.142.608-.275.404-.413.914-.413 1.53 0 .583.15 1.085.45 1.506.3.42.684.631 1.154.631zm10.444 8.696c.486 0 .866-.206 1.142-.62.275-.412.412-.918.412-1.518 0-.582-.15-1.084-.449-1.505-.3-.421-.684-.632-1.154-.632-.485 0-.866.202-1.141.607-.275.405-.413.915-.413 1.53 0 .583.15 1.085.45 1.506.299.421.683.632 1.153.632z" transform="translate(10.435 11.304)" id="%" fill="#8C0014"/></g></svg>
